X:1
T:Charakteristischer Name: Menuett à quatre; Menuet de la chaine
T:Charakteristischer Name: Menuett à quatre; Menuet de la chaine
T:[ID 1-65] Men\"uet Laschenn In dieser Quelle auch als: Menuet Laschene oder Cater In anderer Quelle: Menuet en Quatre - Contra Dansen 1735 (Anm. S. Wascher); Menuet a quatre - Musyk Voor De Fiool 1739 (Hinw. RISM); Menuet á quater - J. de Grúytters 1746 (Hinw. Th. Behr); Menuet de France - R. Storm  um 1760 (Hinw. Th. Behr); Menuet De la Chaine - J. G. Wandembrile1 778 (Hinw. Th. Behr); Menuet a 4 de dammes au Enchaine - F. de Prins 1781 (Hinw. Th. Behr) \"Ahnlich in dieser Quelle: ID 2-7a (anm. S. Wascher);
T:Urheber unbekannt Erstbeleg: 1739 (Datum in der Quelle) Datum in der hier transkribierten Quelle: vermutlich <1767
C:Urheber unbekannt
C:Erstbeleg: 1739 (Datum in der Quelle)
C:Datum in der hier transkribierten Quelle: vermutlich <1767
L:1/8
M:3/4
K:C
V:1 treble 
V:1
 d^cdefg | a3 g a2 | _b2 a2 g2 | a"^[sic]"bagfe | d^cdefg | a3 g a2 | _b2 a2 gf | e6 :: ag a2 _b2 | %9
 g3 fef | gf g2 a2 | f4 e2 | d^cdefg | edefga | _b2 a2 gf | e4 d2 | ag a2 _b2 | g3 fef | gf g2 a2 | %19
 f4 e2 | d^cdefg | edefga | f2 gfef | d6 :| %24

